!!!!SEGMENT: Fss3008-Vergine_sacra.krn
!!!id: Fss3008
!!!AGN: Frottola
!!!voices: 4
!!!COM: Sebastiano Festa
!!!OTL: Vergine sacra
**kern	**kern	**kern	**kern
*part4	*part3	*part2	*part1
*staff4	*staff3	*staff2	*staff1
*I"Bassus	*I"Tenor	*I"Altus	*I"Superius
*I'B	*I'T	*I'A	*I'S
*clefF4	*clefGv2	*clefGv2	*clefG2
*k[]	*k[]	*k[]	*k[]
*C:	*C:	*C:	*C:
*M2/1	*M2/1	*M2/1	*M2/1
*met(C|)	*met(C|)	*met(C|)	*met(C|)
!!section: Prima pars: Vergine sacra
!!!OMD: Prima pars: Vergine sacra
=1	=1	=1	=1
0r	0r	2r	1a
.	.	1d	.
.	.	.	2f
.	.	2B	2g
=2	=2	=2	=2
2r	1A	2c	2a
1D	.	1d	2a
.	2F	.	1r
2BB	2G	2d	.
=3	=3	=3	=3
2C	2A	2r	2r
1D	2A	1d	1f
.	2d	.	.
2D	2d	2A	2f
=4	=4	=4	=4
1.C	1.e	1.c	1.g
2D	2d	2A	2f
=5	=5	=5	=5
2AA	2c	1A	2e
2D	4d	.	2f
.	4B	.	.
1AA	4c	[1A	1e
.	2d	.	.
.	4c	.	.
=6	=6	=6	=6
0D	4d	0A]	0d
.	4e	.	.
.	1f	.	.
.	4e	.	.
.	4d	.	.
=7	=7	=7	=7
0C	1e	0c	0g
.	1e	.	.
=8	=8	=8	=8
1F	1A	1c	1f
1C	1G	1c	1e
=9	=9	=9	=9
1D	1F	1A	1d
1AA	2E	1A	1c
.	[2A	.	.
=10	=10	=10	=10
0BB-X	2A]	0D	0d
.	4G	.	.
.	4F	.	.
.	4G	.	.
.	2A	.	.
.	4G	.	.
=11	=11	=11	=11
1AA	1A	1E	1c
2r	2r	2r	2r
2AA	2E	2A	2c
=12	=12	=12	=12
2AA	2.A	2E	2c
2AA	.	2E	2c
.	4G	.	.
2AA	2F	2.A	2c
2AA	2E	.	2c
.	.	4G	.
=13	=13	=13	=13
0AA	2.A	2F	0c
.	.	2E	.
.	4G	.	.
.	2F	2.A	.
.	2E	.	.
.	.	4G	.
=14	=14	=14	=14
1BB-X	1D	2F	2r
.	.	2G	2d
1AA	2.E	1C	2c
.	.	.	4B
.	4F	.	4A
=15	=15	=15	=15
1GG	2.G	1D	4B
.	.	.	4c
.	.	.	1d
.	4F	.	.
1AA	4E	[1A	.
.	4D	.	.
.	2E	.	2c#i
=16	=16	=16	=16
1D	2D	1A]	2d
.	2D	.	2d
2r	2r	2r	2r
2AA	2A	2e	2c
=17	=17	=17	=17
2E	2G	2e	2B
2F	2A	2d	2A
2E	2B	2e	2A
2E	2B	2e	2G
=18	=18	=18	=18
2AA	2A	2c	2A
2AA	2A	2c	2A
1r	2r	1r	2r
.	2f	.	2a
=19	=19	=19	=19
0r	2e	0r	2g
.	2d	.	2f
.	2c	.	2e
.	2B	.	2d
=20	=20	=20	=20
0r	1.d	0r	1.f
.	2c	.	2e
=21	=21	=21	=21
0r	2B	0r	2d
.	2A	.	2c
.	2.A	.	1B
.	4G#i	.	.
=22	=22	=22	=22
2r	2A	2r	1A
2A	2c	2e	.
2G	2B	2e	1r
2F	2A	2d	.
=23	=23	=23	=23
2E	2G	2c	0r
2D	2F	2B	.
[1F	[1A	[1d	.
=24	=24	=24	=24
2F]	2A]	2d]	0r
2E	2G	2c	.
2D	2F	2B	.
2C	2E	2A	.
=25	=25	=25	=25
1BB	1D	2.A	1r
.	.	4G#i	.
2AA	2E	2A	2r
2D	2F	2A	2d
=26	=26	=26	=26
2GG	2.G	2d	2B
2GG	.	2B	2d
.	4F	.	.
2AA	2E	2A	2d
2AA	2E	2A	2c
=27	=27	=27	=27
2GG	2G	2B	2d
2GG	2G	2B	2d
2r	2r	2r	2r
2D	2F	2A	2d
=28	=28	=28	=28
2GG	2.G	2d	2B
2GG	.	2B	2d
.	4F	.	.
2AA	2E	2A	2d
2AA	2E	2A	2c#i
=29	=29	=29	=29
2D	2D	2A	2d
2D	2D	2A	2d
2r	2r	2r	2r
2D	2d	2A	2f
=30	=30	=30	=30
2C	2e	2c	2g
2F	2f	2c	2a
2C	2e	2c	2g
2D	2d	2A	2f
=31	=31	=31	=31
2AA	2c	2A	2e
2F	2f	2c	2a
2C	2e	2c	2g
2D	4d	2A	4f
.	4c	.	4e
=32	=32	=32	=32
1GG	1B	1G	1d
1AA	1A	1E	1c
=33	=33	=33	=33
2r	2r	2r	2r
2C	2E	2c	2G
2AA	2F	2c	2c
2GG	2G	2d	2B
=34	=34	=34	=34
2D	2G	2d	2A
2D	2F	2A	2d
[1GG	2G	1d	2B
.	[2B-i	.	[2g
=35	=35	=35	=35
1GG]	4B-]	1B	4g]
.	4A	.	4f
.	4G	.	4e
.	4F	.	4d
[1AA	2E	[1A	4c
.	.	.	4d
.	[2c	.	[2e
=36	=36	=36	=36
1AA]	4c]	1A]	4e]
.	4B	.	4d
.	4A	.	4c
.	4G	.	4B
2D	2F	2r	2A
[2GG	[2G	2d	4B
.	.	.	4A
=37	=37	=37	=37
4GG]	4G]	2d	4B
4AA	4F	.	4c
2BB	4E	2G	1d
.	4D	.	.
[1AA	2E	[1A	.
.	4D	.	4c#i
.	4F	.	4B
=38	=38	=38	=38
1AA]	4E	1A]	1c#i
.	4D	.	.
.	2E	.	.
[1Dl	[1Dl	[1Al	[1dl
=39	=39	=39	=39
00D]	00D]	00A]	00d]
=40||	=40||	=40||	=40||
*M2/1	*M2/1	*M2/1	*M2/1
*met(C|)	*met(C|)	*met(C|)	*met(C|)
!!section: Secunda pars: Canzon, se gli è pur vero
!!!OMD: Secunda pars: Canzon, se gli è pur vero
1D	1d	1A	1f
2AA	2c	2A	2e
2D	2d	2A	2f
=41	=41	=41	=41
2C	2e	2c	2g
2C	2e	2c	2g
2D	2d	2A	2f
2D	2d	2A	2f
=42	=42	=42	=42
2r	2r	2r	2r
2D	2d	2A	2f
2AA	2c	2A	2e
2D	2d	2A	2d
=43	=43	=43	=43
2AA	2e	2A	2c
2D	2f	2A	2d
2.D	2.d	2A	2.f
.	.	2A	.
4D	4c	.	4e
=44	=44	=44	=44
2GG	2B	2G	2d
2AA	2A	2E	2c
1BB	2A	1D	1d
.	2G#i	.	.
=45	=45	=45	=45
1AA	1A	1E	1c
2r	2r	2r	2r
2AA	2A	2E	2c
=46	=46	=46	=46
2AA	2A	2E	2c
2AA	2A	2E	2c
2AA	2A	2E	2c
2GG	2B	2G	2d
=47	=47	=47	=47
2C	2c	2G	2e
2BB	1G	2G	2d
1AA	.	1A	1c
.	2F#i	.	.
=48	=48	=48	=48
1GG	1G	1d	1B
[1C	[1e	[1c	[1g
=49	=49	=49	=49
1C]	1e]	1c]	1g]
1D	2.d	1A	2.f
.	4c	.	4e
=50	=50	=50	=50
0GG	4B	1G	4d
.	4A	.	4c
.	4G	.	4B
.	4F	.	4A
.	2.G	[1D	2.B
.	4F	.	4A
=51	=51	=51	=51
1GG	4G	1D]	4B
.	4F	.	4c
.	4E	.	1d
.	4D	.	.
1AA	2E	[1A	.
.	2E	.	2c#i
=52	=52	=52	=52
1D	2D	1A]	2d
.	2D	.	2d
2r	2r	2r	2r
2GG	2G	2B	2d
=53	=53	=53	=53
2GG	2G	2B	2d
2GG	2G	2B	2d
1C	1G	2.c	1e
.	.	4d	.
=54	=54	=54	=54
1AA	1A	1e	1c
2r	2r	2r	2r
2AA	2E	2A	2c
=55	=55	=55	=55
2AA	2E	2A	2c
2AA	2E	2A	2c
1D	1F	1A	1d
=56	=56	=56	=56
1GG	1D	1G	1B
2r	2r	2r	2r
2GG	2d	2G	2B
=57	=57	=57	=57
2GG	2d	2G	2B
2GG	2d	2G	2B
1GG	1d	1G	1B
=58	=58	=58	=58
00Dl	00dl	00Fl	00Al
==	==	==	==
*-	*-	*-	*-
!!!system-decoration: [*]
!!!RDF**kern: i = editorial accidental
!!!RDF**kern: l = terminal long
!!!ENC: Benjamin Ory
!!!END: 2024/10/30
!!!EED: Benjamin Ory
!!!EEV: 2024/10/30
!!!YEC: Copyright 2024 Benjamin Ory, All Rights Reserved
!!!ONB: Translated from MusicXML on 2024/10/30